logos/typeform.svg

<?xml version="1.0" encoding="UTF-8"?>
<svg width="512px" height="302px" viewBox="0 0 512 302" version="1.1" xmlns="http://www.w3.org/2000/svg" xmlns:xlink="http://www.w3.org/1999/xlink" preserveAspectRatio="xMidYMid">
    <g>
        <path d="M38.5170778,39.3428059 C66.6725006,10.6324853 102.149603,-2.48624335 145.263672,0.387614113 C186.784556,3.1550771 229.09221,23.6399647 259.402225,53.8256423 C285.163188,79.4801245 294.904469,104.611055 294.568846,142.16805 C297.431284,136.039563 303.024962,131.20334 311.969283,131.20334 C325.498664,131.20334 331.464614,142.212174 331.464614,151.709394 L331.464614,155.48932 L301.463128,155.48932 C301.463128,162.129683 305.328921,167.170777 311.969283,167.170777 C316.674066,167.170777 320.962037,164.480285 323.062195,160.027736 L330.539758,162.968672 C326.255364,171.287014 321.296559,174.902362 311.969283,174.902362 C301.774327,174.902362 295.932526,168.618186 293.526321,161.298917 C289.808058,196.617142 275.875567,227.564473 251.600859,253.338326 C222.320941,284.425574 189.033761,301.041419 150.686526,301.647723 L150.686526,301.647723 L149.433238,301.662054 C110.633104,301.937066 76.5461946,286.47635 47.0123369,256.330082 C17.6917192,226.399796 1.93694064,190.740569 0.17298989,148.769086 C-1.66888635,104.705251 11.2031819,67.1903529 38.5170778,39.3428059 Z M145.144698,2.17254412 C102.544963,-0.667029357 67.5795465,12.2624879 39.7942446,40.5953932 C12.8442972,68.071881 0.138195745,105.103079 1.96031131,148.694173 C3.70548548,190.218884 19.2757249,225.460427 48.2902041,255.078209 C77.8113995,285.211553 111.850772,300.471104 150.658263,299.859056 L150.658263,299.859056 L151.876869,299.834284 C189.194484,298.906696 221.64317,282.536059 250.298626,252.111819 C275.700067,225.141649 289.641359,192.461384 292.289216,154.952192 C292.242378,154.314109 292.21993,153.680226 292.21993,153.052851 C292.21993,151.50702 292.356169,149.921771 292.637112,148.3455 C294.112459,107.755544 284.930119,81.7726692 258.139901,55.0931861 C228.12519,25.2016019 186.216948,4.91010458 145.144698,2.17254412 Z M199.170959,131.877215 L212.775473,162.914469 L227.202876,131.877215 L237.37272,131.877215 L209.71647,191.372142 L199.544837,191.372142 L207.593057,174.062836 L189.101293,131.877215 L199.170959,131.877215 Z M265.709106,131.203519 C278.061397,131.203519 284.615892,139.269627 284.615892,153.05303 C284.615892,166.498333 277.97553,174.902541 265.539162,174.902541 C260.580357,174.902541 256.295964,172.548361 254.195806,169.525136 L254.195806,191.371069 L245.455286,191.371069 L245.455286,131.877931 L254.195806,131.877931 L254.195806,136.750869 C255.793285,133.9763 260.580357,131.203519 265.709106,131.203519 Z M388.742927,131.203519 C395.046977,131.203519 400.088071,133.303677 403.869786,137.50757 C407.651501,141.709674 409.583503,146.918924 409.583503,153.05303 C409.583503,159.187136 407.651501,164.398175 403.869786,168.600279 C400.088071,172.800595 395.046977,174.902541 388.742927,174.902541 C382.440665,174.902541 377.315493,172.800595 373.531989,168.600279 C369.750274,164.398175 367.90235,159.187136 367.90235,153.05303 C367.90235,146.918924 369.750274,141.709674 373.531989,137.50757 C377.315493,133.303677 382.440665,131.203519 388.742927,131.203519 Z M187.708284,115.406541 L187.708284,124.145272 L169.148543,124.145272 L169.148543,174.230634 L159.903556,174.230634 L159.903556,124.145272 L141.343815,124.145272 L141.343815,115.406541 L187.708284,115.406541 Z M439.147069,131.20334 C441.079071,131.20334 442.842917,131.541441 444.524474,132.212275 L443.011072,140.196094 C441.667616,139.355315 439.987847,138.936715 438.054056,138.936715 C434.944964,138.936715 432.254473,140.616483 429.987948,144.060098 C427.717846,147.421423 426.624834,152.212073 426.624834,158.514335 L426.624834,174.229739 L417.886103,174.229739 L417.886103,131.877752 L426.624834,131.877752 L426.624834,138.936715 C429.399403,133.97791 434.440497,131.20334 439.147069,131.20334 Z M499.899943,131.204593 C507.545662,131.204593 512,136.245687 512,143.893194 L512,174.229203 L503.261269,174.229203 L503.261269,145.826985 C503.261269,141.372647 500.823011,138.936178 497.041296,138.936178 C491.579813,138.936178 487.125475,146.07743 487.125475,157.254419 L487.125475,174.229203 L478.384955,174.229203 L478.384955,145.826985 C478.384955,141.372647 475.948486,138.936178 472.16856,138.936178 C466.537132,138.936178 462.25095,146.07743 462.25095,158.179275 L462.25095,174.229203 L453.512219,174.229203 L453.512219,131.877215 L462.25095,131.877215 L462.25095,139.104334 C465.698142,133.809217 469.898457,131.204593 475.023629,131.204593 C480.739135,131.204593 485.445706,134.649996 486.706874,139.943324 C489.646022,134.313685 494.436671,131.204593 499.899943,131.204593 Z M358.253431,114.733918 C361.026212,114.733918 363.298103,115.236596 365.230105,116.245531 L363.462681,123.640805 C361.952857,122.884104 360.2713,122.463715 358.505665,122.463715 C354.725739,122.463715 352.791948,124.649739 352.791948,129.104077 L352.791948,131.876858 L362.119224,131.876858 L362.119224,139.606654 L352.791948,139.606654 L352.791948,174.228845 L344.053217,174.228845 L344.053217,139.606654 L338.589945,139.606654 L338.589945,131.876858 L344.053217,131.876858 L344.053217,129.692622 C344.053217,119.690934 349.432411,114.733918 358.253431,114.733918 Z M264.530227,138.935105 C261.337058,138.935105 258.732433,140.196273 256.716353,142.802687 C254.698484,145.321445 253.691339,148.766848 253.691339,153.05303 C253.691339,157.339212 254.698484,160.782827 256.716353,163.389241 C258.732433,165.909788 261.337058,167.170956 264.530227,167.170956 C267.725186,167.170956 270.329811,165.909788 272.34768,163.389241 C274.36376,160.782827 275.370905,157.339212 275.370905,153.05303 C275.370905,148.766848 274.36376,145.321445 272.34768,142.802687 C270.329811,140.196273 267.725186,138.935105 264.530227,138.935105 Z M388.742927,138.935105 C385.129367,138.935105 382.272509,140.36264 380.170562,143.137209 C378.154482,145.90999 377.147337,149.187237 377.147337,153.05303 C377.147337,156.918823 378.154482,160.280149 380.170562,163.052929 C382.272509,165.827499 385.129367,167.170956 388.742927,167.170956 C392.356486,167.170956 395.215133,165.827499 397.231213,163.052929 C399.331371,160.280149 400.340305,156.918823 400.340305,153.05303 C400.340305,149.187237 399.331371,145.90999 397.231213,143.137209 C395.215133,140.36264 392.356486,138.935105 388.742927,138.935105 Z M311.969283,138.936715 C306.339644,138.936715 302.640218,142.716641 301.633073,148.179913 L322.221416,148.179913 C321.464715,142.884797 317.935234,138.936715 311.969283,138.936715 Z" fill="#262627" fill-rule="nonzero"></path>
    </g>
</svg>

<svg preserveAspectRatio="xMidYMid" viewBox="0 0 512 302" xmlns="http://www.w3.org/2000/svg">
  <path fill="#262627" d="M38.517 39.343C66.673 10.633 102.15-2.487 145.264.388c41.52 2.767 83.828 23.252 114.138 53.438 25.761 25.654 35.502 50.785 35.167 88.342 2.862-6.128 8.456-10.965 17.4-10.965 13.53 0 19.496 11.01 19.496 20.506v3.78h-30.002c0 6.64 3.866 11.682 10.506 11.682 4.705 0 8.993-2.69 11.093-7.143l7.478 2.94c-4.285 8.319-9.243 11.934-18.57 11.934-10.196 0-16.037-6.284-18.444-13.603-3.718 35.318-17.65 66.265-41.925 92.04-29.28 31.087-62.567 47.702-100.914 48.309l-1.254.014c-38.8.275-72.887-15.186-102.42-45.332C17.691 226.4 1.936 190.74.172 148.77c-1.842-44.065 11.03-81.58 38.344-109.427Zm106.628-37.17c-42.6-2.84-77.565 10.09-105.35 38.422C12.844 68.072.137 105.103 1.96 148.695c1.745 41.524 17.316 76.765 46.33 106.383 29.521 30.134 63.56 45.393 102.368 44.781l1.219-.025c37.317-.927 69.766-17.298 98.422-47.722 25.401-26.97 39.342-59.65 41.99-97.16a25.95 25.95 0 0 1-.07-1.9c0-1.545.137-3.13.418-4.707 1.475-40.59-7.707-66.572-34.497-93.252-30.015-29.891-71.923-50.183-112.995-52.92Zm54.026 129.704 13.604 31.037 14.428-31.037h10.17l-27.657 59.495h-10.171l8.048-17.31-18.492-42.185h10.07Zm66.538-.673c12.352 0 18.907 8.066 18.907 21.849 0 13.445-6.64 21.85-19.077 21.85-4.959 0-9.243-2.355-11.343-5.378v21.846h-8.74v-59.493h8.74v4.873c1.597-2.775 6.384-5.547 11.513-5.547Zm123.034 0c6.304 0 11.345 2.1 15.127 6.304 3.782 4.202 5.714 9.41 5.714 15.545 0 6.134-1.932 11.345-5.714 15.547-3.782 4.2-8.823 6.303-15.127 6.303-6.302 0-11.428-2.102-15.211-6.303-3.782-4.202-5.63-9.413-5.63-15.547s1.848-11.343 5.63-15.545c3.783-4.204 8.909-6.304 15.21-6.304Zm-201.035-15.797v8.738h-18.56v50.086h-9.244v-50.086h-18.56v-8.738h46.364Zm251.44 15.796c1.931 0 3.695.338 5.376 1.01l-1.513 7.983c-1.343-.84-3.023-1.26-4.957-1.26-3.109 0-5.8 1.68-8.066 5.124-2.27 3.361-3.363 8.152-3.363 14.454v15.716h-8.739v-42.352h8.739v7.059c2.774-4.96 7.815-7.734 12.522-7.734Zm60.752.002c7.646 0 12.1 5.04 12.1 12.688v30.336h-8.739v-28.402c0-4.454-2.438-6.89-6.22-6.89-5.461 0-9.916 7.14-9.916 18.317v16.975h-8.74v-28.402c0-4.454-2.437-6.89-6.216-6.89-5.632 0-9.918 7.14-9.918 19.242v16.05h-8.739v-42.352h8.739v7.227c3.447-5.295 7.647-7.9 12.773-7.9 5.715 0 10.422 3.446 11.683 8.74 2.939-5.63 7.73-8.74 13.193-8.74Zm-141.647-16.471c2.773 0 5.045.503 6.977 1.512l-1.767 7.395a11.027 11.027 0 0 0-4.957-1.177c-3.78 0-5.714 2.186-5.714 6.64v2.773h9.327v7.73h-9.327v34.622h-8.739v-34.622h-5.463v-7.73h5.463v-2.184c0-10.002 5.38-14.96 14.2-14.96Zm-93.723 24.201c-3.193 0-5.798 1.261-7.814 3.868-2.018 2.518-3.025 5.964-3.025 10.25s1.007 7.73 3.025 10.336c2.016 2.52 4.621 3.782 7.814 3.782 3.195 0 5.8-1.261 7.818-3.782 2.016-2.606 3.023-6.05 3.023-10.336 0-4.286-1.007-7.732-3.023-10.25-2.018-2.607-4.623-3.868-7.818-3.868Zm124.213 0c-3.614 0-6.47 1.428-8.572 4.202-2.017 2.773-3.024 6.05-3.024 9.916 0 3.866 1.007 7.227 3.024 10 2.102 2.774 4.958 4.118 8.572 4.118 3.613 0 6.472-1.344 8.488-4.118 2.1-2.773 3.11-6.134 3.11-10 0-3.866-1.01-7.143-3.11-9.916-2.016-2.774-4.875-4.202-8.488-4.202Zm-76.774.002c-5.63 0-9.329 3.78-10.336 9.243h20.588c-.756-5.295-4.286-9.243-10.252-9.243Z"/>
</svg>
